X: 6
T:Corner House, The
M:C|
L:1/8
R:reel
K:Ador
EAAG ABcd|e2dB cBAG|EGGF G2AB|cABG AGED|
EAAG ABcd|eaae egge|d2Bd egge|1 dBGB A2AG:|2 dBGB A2Bd||
|:eaag a2ga|bgab gedB|d2Bd edBd|(3efg fa gedg|
eaag a2ga|bgab gedB|d2Bd egge|1 dBGB A2Bd:|2 dBGB A2AG||

